svg/emoji_u1f3f8.svg

<svg width="128" height="128" viewBox="0 0 128 128" fill="none" xmlns="http://www.w3.org/2000/svg">
<path d="M114.28 8.72987C93.12 -4.03013 69.28 16.8699 62.99 33.0699C56.7 49.2599 66.8 60.0299 66.8 60.0299C66.8 60.0299 35.28 92.9799 33.09 93.8299L33.9 97.5399L68.48 63.2999C68.48 63.2999 74.29 68.8599 84.1 68.5399C101.53 67.9699 109.72 58.7499 113.53 54.5399C117.45 50.2099 122.58 43.0099 123.72 31.8699C124.57 23.5499 123.19 14.0999 114.28 8.72987ZM107.05 55.7399C94.57 66.7899 81.81 65.1699 77.24 62.7899C72.67 60.4099 71.62 58.7899 69.91 56.8799C68.88 55.7299 63.72 49.8799 65.53 38.2599C66.81 30.0599 71.11 24.5199 76.77 18.8799C83.17 12.4999 101.35 2.61987 114.12 14.4099C125.08 24.5499 119.52 44.6899 107.05 55.7399Z" fill="#D29943" style="fill:#D29943;fill:color(display-p3 0.8250 0.6009 0.2647);fill-opacity:1;"/>
<path d="M112.09 48.4C101.67 62.56 82.28 68.59 71.61 58.59L69.9 56.88C69.9 56.88 69.23 57.45 67.61 56.98C65.99 56.5 62.85 52.07 62.47 46.31C61.65 33.86 65.79 25.82 74.66 17.64C88.09 5.25002 106.5 3.50002 115.62 14.21C119.43 18.68 123.52 32.88 112.09 48.4ZM122.67 20.83C122.35 17.85 120.54 13.86 117.72 11.16C103.24 -2.69998 82.65 6.54002 73.04 15.4C62.56 25.07 60.28 33.35 59.63 42.19C58.82 53.28 64.54 59.14 64.54 59.14L31.12 92.54L31.69 97.16L68.36 60.68C68.36 60.68 73.29 65.93 84.17 66.39C93.03 66.77 101.98 62.33 108.36 56.67C116.28 49.69 124.38 37.07 122.67 20.83Z" fill="#EAD074" style="fill:#EAD074;fill:color(display-p3 0.9167 0.8150 0.4545);fill-opacity:1;"/>
<path d="M58.62 62.5099C58.52 63.1599 64.37 68.8399 65.19 68.8399C66.01 68.8399 69.6 65.0699 69.6 64.6599C69.6 64.2499 63.87 57.9999 62.97 58.0799C62.07 58.1499 58.79 61.4399 58.62 62.5099Z" fill="#62666A" style="fill:#62666A;fill:color(display-p3 0.3843 0.4000 0.4157);fill-opacity:1;"/>
<path d="M27.93 92.6399C27.93 92.6399 27.73 91.5999 28.79 90.5699C30.05 89.3399 31.31 89.9399 34.35 93.2099C37.45 96.5399 38.37 97.5899 37.2 99.0599C36.06 100.49 34.73 100.15 34.73 100.15L14.25 120.45C14.25 120.45 14.54 122.37 13.18 123.3C12.18 123.99 10.61 123.73 10.61 123.73L3.98003 116.89C3.98003 116.89 3.55003 115.32 4.62003 114.18C5.69003 113.04 7.26003 113.47 7.26003 113.47L27.93 92.6399Z" fill="#62666A" style="fill:#62666A;fill:color(display-p3 0.3843 0.4000 0.4157);fill-opacity:1;"/>
<path d="M30.87 94.5499C30.25 94.1999 29.04 94.4999 28.33 95.4099C27.62 96.3199 27.97 97.5998 27.26 98.1498C26.55 98.7098 25.02 98.6098 23.5 100.13C21.98 101.65 22.18 103.99 21.06 105.01C19.94 106.03 17.83 106.1 16.69 107.25C15.01 108.93 14.86 111.32 13.95 112.08C13.04 112.84 11.26 112.54 10.34 113.4C9.41998 114.26 8.81998 116.65 10.59 117.26C12.36 117.87 12.32 116.04 13.54 115.68C14.76 115.32 15.93 115.07 16.95 113.65C17.97 112.23 17.86 110.85 18.98 109.79C20.1 108.72 21.93 108.77 23.25 107.6C24.57 106.43 24.42 103.89 25.94 102.57C27.46 101.25 28.23 102.01 29.4 100.59C30.57 99.1698 30.26 97.7898 31.23 97.3398C32.19 96.8898 32.14 95.2599 30.87 94.5499Z" fill="#858485" style="fill:#858485;fill:color(display-p3 0.5216 0.5176 0.5216);fill-opacity:1;"/>
<path d="M104.41 56.2499L71.54 23.4799C71.13 23.0699 71.13 22.4099 71.54 21.9999C71.95 21.5899 72.61 21.5899 73.02 21.9999L106.13 54.8699C106.13 54.8699 105.78 55.1699 105.2 55.6399C104.82 55.9299 104.41 56.2499 104.41 56.2499Z" fill="#B9CED4" style="fill:#B9CED4;fill:color(display-p3 0.7255 0.8078 0.8314);fill-opacity:1;"/>
<path d="M111.11 49.66L77.61 16.55C77.2 16.14 77.2 15.48 77.6 15.07C78.01 14.66 78.67 14.66 79.08 15.06L112.4 47.95C112.4 47.95 112.22 48.28 111.78 48.83C111.59 49.07 111.11 49.66 111.11 49.66Z" fill="#B9CED4" style="fill:#B9CED4;fill:color(display-p3 0.7255 0.8078 0.8314);fill-opacity:1;"/>
<path d="M95.9 61.2098L66.73 31.0898C66.33 30.6798 66.34 30.0098 66.75 29.6098C67.16 29.2098 67.82 29.2198 68.23 29.6298L97.96 60.2798C97.96 60.2798 97.46 60.5198 96.95 60.7698C96.47 60.9998 95.9 61.2098 95.9 61.2098Z" fill="#B9CED4" style="fill:#B9CED4;fill:color(display-p3 0.7255 0.8078 0.8314);fill-opacity:1;"/>
<path d="M84.99 63.5301L64.29 41.6301C63.89 41.2101 63.9 40.5501 64.32 40.1501C64.74 39.7501 65.4 39.7601 65.8 40.1801C65.8 40.1801 87.47 62.8401 87.41 62.9201C87.37 62.9701 87.14 63.4201 86.29 63.4401C85.89 63.4501 84.99 63.5301 84.99 63.5301Z" fill="#B9CED4" style="fill:#B9CED4;fill:color(display-p3 0.7255 0.8078 0.8314);fill-opacity:1;"/>
<path d="M116.18 41.6901L86.2901 12.4501C85.8801 12.0501 85.87 11.3801 86.27 10.9701C86.68 10.5601 87.3401 10.5501 87.7501 10.9501L117.07 39.6501C117.07 39.6501 116.89 40.0801 116.69 40.5401C116.5 41.0001 116.18 41.6901 116.18 41.6901Z" fill="#B9CED4" style="fill:#B9CED4;fill:color(display-p3 0.7255 0.8078 0.8314);fill-opacity:1;"/>
<path d="M119.22 32.0001L96.96 9.49006C96.55 9.08006 96.56 8.42007 96.97 8.01007C97.38 7.60007 98.04 7.61007 98.45 8.02007L119.54 29.1401C119.54 29.1401 119.41 30.8301 119.22 32.0001Z" fill="#B9CED4" style="fill:#B9CED4;fill:color(display-p3 0.7255 0.8078 0.8314);fill-opacity:1;"/>
<path d="M64.98 37.8399C64.72 37.8399 64.45 37.7399 64.25 37.5399C63.84 37.1399 63.83 36.4799 64.23 36.0599L91.86 8.72987C92.26 8.31987 92.92 8.30987 93.34 8.70987C93.75 9.10987 93.76 9.76987 93.36 10.1899L65.73 37.5199C65.53 37.7399 65.26 37.8399 64.98 37.8399Z" fill="#B9CED4" style="fill:#B9CED4;fill:color(display-p3 0.7255 0.8078 0.8314);fill-opacity:1;"/>
<path d="M65.28 49.1001C65.01 49.1001 64.75 49.0001 64.54 48.7901C64.13 48.3801 64.13 47.7201 64.54 47.3101L103.65 8.26014C104.06 7.85014 104.72 7.85014 105.13 8.26014C105.54 8.67014 105.54 9.33014 105.13 9.74014L66.01 48.7901C65.81 48.9901 65.54 49.1001 65.28 49.1001Z" fill="#B9CED4" style="fill:#B9CED4;fill:color(display-p3 0.7255 0.8078 0.8314);fill-opacity:1;"/>
<path d="M69.4999 57.5199C69.2299 57.5199 68.9699 57.4199 68.7699 57.2199C68.3599 56.8099 68.3499 56.1499 68.7599 55.7399L111.43 12.3599C111.83 11.9499 112.49 11.9399 112.91 12.3499C113.32 12.7599 113.33 13.4199 112.92 13.8299L70.2499 57.2099C70.0399 57.4199 69.7699 57.5199 69.4999 57.5199Z" fill="#B9CED4" style="fill:#B9CED4;fill:color(display-p3 0.7255 0.8078 0.8314);fill-opacity:1;"/>
<path d="M75.23 61.2199L117.61 18.6899C117.61 18.6899 117.77 18.7099 118.08 19.2799C118.36 19.7899 118.57 20.7199 118.57 20.7199L77.23 62.1699C77.23 62.1699 76.75 62.0199 76.21 61.7499C75.61 61.4499 75.23 61.2199 75.23 61.2199Z" fill="#B9CED4" style="fill:#B9CED4;fill:color(display-p3 0.7255 0.8078 0.8314);fill-opacity:1;"/>
<path d="M84.96 63.54L119.58 27.5C119.61 28.46 119.41 30.79 119.41 30.79L88.32 63.3C88.32 63.3 86.87 63.54 84.96 63.54Z" fill="#B9CED4" style="fill:#B9CED4;fill:color(display-p3 0.7255 0.8078 0.8314);fill-opacity:1;"/>
<path d="M72.879 84.2485C72.4353 84.8802 64.2028 108.498 64.2028 108.498C64.2028 108.498 63.6141 110.727 65.4643 112.444C67.3146 114.161 69.3098 114.281 69.3098 114.281C69.3098 114.281 69.7513 116.929 73.6643 118.093C76.0917 118.811 78.4306 117.655 78.4306 117.655C78.4306 117.655 80.0246 119.444 83.5891 119.067C86.3755 118.778 87.5817 116.028 87.5817 116.028C87.5817 116.028 89.9013 116.975 91.8506 116.13C94.5025 114.984 94.6494 112.217 94.6494 112.217C94.6494 112.217 97.0653 112.246 98.6632 109.808C100.261 107.369 98.4603 104.34 98.4603 104.34L87.2332 83.9022L79.7053 84.9017L72.879 84.2485Z" fill="#E1F7FE" style="fill:#E1F7FE;fill:color(display-p3 0.8824 0.9686 0.9961);fill-opacity:1;"/>
<path d="M72.4705 82.6986C72.4705 82.6986 72.169 79.539 73.372 76.8309C74.5401 74.1955 76.3915 73.2973 79.1083 73.0267C82.132 72.7218 84.2595 73.1396 86.0711 75.2866C88.2078 77.8168 87.6006 81.6738 87.6006 81.6738C87.6006 81.6738 86.0084 84.5045 84.746 84.9357C83.3411 85.414 77.5474 85.6764 76.0428 85.2881C73.1727 84.5371 72.4705 82.6986 72.4705 82.6986Z" fill="#E1E1E1" style="fill:#E1E1E1;fill:color(display-p3 0.8824 0.8824 0.8824);fill-opacity:1;"/>
<path d="M80.694 75.1053C79.8408 73.2652 76.268 73.6307 74.6949 76.3772C73.1217 79.1236 74.569 81.4738 76.1273 81.6216C77.6828 81.779 78.1402 78.9366 79.1373 78.1993C80.1468 77.455 81.406 76.6355 80.694 75.1053Z" fill="white" style="fill:white;fill-opacity:1;"/>
<path d="M70.0506 113.96C69.9902 114.14 69.9584 114.235 69.9553 114.244C69.7615 114.791 69.1696 115.078 68.6229 114.884C68.0761 114.69 67.8178 114.076 67.9832 113.552C68.0022 113.495 69.3931 108.087 70.7814 102.277C72.5455 94.9051 74.1769 85.5695 74.1865 85.4779C74.2791 84.9183 74.83 84.5334 75.3991 84.6292C75.9649 84.7345 76.3435 85.2727 76.2477 85.8418C76.2286 85.9303 74.3979 95.3255 72.7539 102.748C71.489 108.504 70.4542 112.756 70.0506 113.96Z" fill="#AAE2F9" style="fill:#AAE2F9;fill:color(display-p3 0.6667 0.8863 0.9765);fill-opacity:1;"/>
<path d="M78.9172 117.807C78.9172 117.807 78.8587 118.769 77.8405 118.754C76.8539 118.74 76.827 117.782 76.827 117.782C76.827 117.782 77.0005 106.565 77.0492 101.952C77.0883 97.3981 77.0748 86.4565 77.0781 86.3522C77.0728 85.7703 77.5447 85.3063 78.1234 85.3104C78.7021 85.3145 79.1693 85.777 79.1652 86.3556C79.1714 86.4632 79.1817 97.4142 79.1394 101.977C79.0939 106.581 78.9172 117.807 78.9172 117.807Z" fill="#AAE2F9" style="fill:#AAE2F9;fill:color(display-p3 0.6667 0.8863 0.9765);fill-opacity:1;"/>
<path d="M88.0492 116.301C87.938 116.633 87.6561 116.908 87.2923 116.986C86.7323 117.115 86.1637 116.766 86.0382 116.197C86.0225 116.118 84.2578 108.544 82.7185 100.456C81.2231 92.5823 80.3321 86.3669 80.3227 86.3005C80.2414 85.7248 80.6376 85.2037 81.2038 85.1193C81.7794 85.038 82.3006 85.4341 82.385 86.0003C82.3944 86.0668 83.2791 92.2378 84.762 100.054C86.2855 108.095 88.0408 115.634 88.066 115.716C88.1225 115.925 88.1096 116.121 88.0492 116.301Z" fill="#AAE2F9" style="fill:#AAE2F9;fill:color(display-p3 0.6667 0.8863 0.9765);fill-opacity:1;"/>
<path d="M95.8898 111.884C95.7976 112.159 95.5949 112.386 95.31 112.512C94.7816 112.736 94.1653 112.498 93.9322 111.966C93.8912 111.868 90.581 103.808 88.6222 98.859C86.6572 93.8656 83.429 85.9072 83.429 85.9072L85.3688 85.1229C85.3688 85.1229 88.6033 93.0941 90.5746 98.1001C92.5208 103.024 95.8184 111.058 95.8594 111.156C95.9728 111.384 95.9692 111.647 95.8898 111.884Z" fill="#AAE2F9" style="fill:#AAE2F9;fill:color(display-p3 0.6667 0.8863 0.9765);fill-opacity:1;"/>
<path d="M72.4365 82.3916L72.305 85.4272C72.305 85.4272 74.1708 87.2865 80.0309 87.0464C84.9613 86.8426 87.9244 84.8932 87.9244 84.8932L87.623 81.6704C87.623 81.6704 84.0309 83.4195 79.9037 83.6499C75.6596 83.8832 72.4365 82.3916 72.4365 82.3916Z" fill="#FD1B0D" style="fill:#FD1B0D;fill:color(display-p3 0.9922 0.1059 0.0510);fill-opacity:1;"/>
</svg>

<?xml version="1.0" encoding="utf-8"?>
<!-- Generator: Adobe Illustrator 25.2.3, SVG Export Plug-In . SVG Version: 6.00 Build 0)  -->
<svg version="1.1" id="Layer_2" xmlns="http://www.w3.org/2000/svg" xmlns:xlink="http://www.w3.org/1999/xlink" x="0px" y="0px"
	 viewBox="0 0 128 128" style="enable-background:new 0 0 128 128;" xml:space="preserve">
<path style="fill:#168DFC;" d="M114.28,8.73c-21.16-12.76-45,8.14-51.29,24.34c-6.29,16.19,3.81,26.96,3.81,26.96
	S35.28,92.98,33.09,93.83l0.81,3.71l34.58-34.24c0,0,5.81,5.56,15.62,5.24c17.43-0.57,25.62-9.79,29.43-14
	c3.92-4.33,9.05-11.53,10.19-22.67C124.57,23.55,123.19,14.1,114.28,8.73z M107.05,55.74c-12.48,11.05-25.24,9.43-29.81,7.05
	c-4.57-2.38-5.62-4-7.33-5.91c-1.03-1.15-6.19-7-4.38-18.62c1.28-8.2,5.58-13.74,11.24-19.38c6.4-6.38,24.58-16.26,37.35-4.47
	C125.08,24.55,119.52,44.69,107.05,55.74z"/>
<path style="fill:#05BEF2;" d="M112.09,48.4c-10.42,14.16-29.81,20.19-40.48,10.19l-1.71-1.71c0,0-0.67,0.57-2.29,0.1
	c-1.62-0.48-4.76-4.91-5.14-10.67c-0.82-12.45,3.32-20.49,12.19-28.67C88.09,5.25,106.5,3.5,115.62,14.21
	C119.43,18.68,123.52,32.88,112.09,48.4z M122.67,20.83c-0.32-2.98-2.13-6.97-4.95-9.67C103.24-2.7,82.65,6.54,73.04,15.4
	c-10.48,9.67-12.76,17.95-13.41,26.79c-0.81,11.09,4.91,16.95,4.91,16.95l-33.42,33.4l0.57,4.62l36.67-36.48
	c0,0,4.93,5.25,15.81,5.71c8.86,0.38,17.81-4.06,24.19-9.72C116.28,49.69,124.38,37.07,122.67,20.83z"/>
<path style="fill:#62666A;" d="M58.62,62.51c-0.1,0.65,5.75,6.33,6.57,6.33c0.82,0,4.41-3.77,4.41-4.18s-5.73-6.66-6.63-6.58
	C62.07,58.15,58.79,61.44,58.62,62.51z"/>
<path style="fill:#62666A;" d="M27.93,92.64c0,0-0.2-1.04,0.86-2.07c1.26-1.23,2.52-0.63,5.56,2.64c3.1,3.33,4.02,4.38,2.85,5.85
	c-1.14,1.43-2.47,1.09-2.47,1.09l-20.48,20.3c0,0,0.29,1.92-1.07,2.85c-1,0.69-2.57,0.43-2.57,0.43l-6.63-6.84
	c0,0-0.43-1.57,0.64-2.71s2.64-0.71,2.64-0.71L27.93,92.64z"/>
<path style="fill:#858485;" d="M30.87,94.55c-0.62-0.35-1.83-0.05-2.54,0.86c-0.71,0.91-0.36,2.19-1.07,2.74
	c-0.71,0.56-2.24,0.46-3.76,1.98s-1.32,3.86-2.44,4.88c-1.12,1.02-3.23,1.09-4.37,2.24c-1.68,1.68-1.83,4.07-2.74,4.83
	c-0.91,0.76-2.69,0.46-3.61,1.32s-1.52,3.25,0.25,3.86s1.73-1.22,2.95-1.58c1.22-0.36,2.39-0.61,3.41-2.03
	c1.02-1.42,0.91-2.8,2.03-3.86c1.12-1.07,2.95-1.02,4.27-2.19c1.32-1.17,1.17-3.71,2.69-5.03c1.52-1.32,2.29-0.56,3.46-1.98
	c1.17-1.42,0.86-2.8,1.83-3.25C32.19,96.89,32.14,95.26,30.87,94.55z"/>
<g>
	<path style="fill:#B9CED4;" d="M104.41,56.25L71.54,23.48c-0.41-0.41-0.41-1.07,0-1.48c0.41-0.41,1.07-0.41,1.48,0l33.11,32.87
		c0,0-0.35,0.3-0.93,0.77C104.82,55.93,104.41,56.25,104.41,56.25z"/>
</g>
<g>
	<path style="fill:#B9CED4;" d="M111.11,49.66l-33.5-33.11c-0.41-0.41-0.41-1.07-0.01-1.48c0.41-0.41,1.07-0.41,1.48-0.01
		l33.32,32.89c0,0-0.18,0.33-0.62,0.88C111.59,49.07,111.11,49.66,111.11,49.66z"/>
</g>
<g>
	<path style="fill:#B9CED4;" d="M95.9,61.21L66.73,31.09c-0.4-0.41-0.39-1.08,0.02-1.48c0.41-0.4,1.07-0.39,1.48,0.02l29.73,30.65
		c0,0-0.5,0.24-1.01,0.49C96.47,61,95.9,61.21,95.9,61.21z"/>
</g>
<g>
	<path style="fill:#B9CED4;" d="M84.99,63.53l-20.7-21.9c-0.4-0.42-0.39-1.08,0.03-1.48c0.42-0.4,1.08-0.39,1.48,0.03
		c0,0,21.67,22.66,21.61,22.74c-0.04,0.05-0.27,0.5-1.12,0.52C85.89,63.45,84.99,63.53,84.99,63.53z"/>
</g>
<g>
	<path style="fill:#B9CED4;" d="M116.18,41.69L86.29,12.45c-0.41-0.4-0.42-1.07-0.02-1.48c0.41-0.41,1.07-0.42,1.48-0.02l29.32,28.7
		c0,0-0.18,0.43-0.38,0.89C116.5,41,116.18,41.69,116.18,41.69z"/>
</g>
<g>
	<path style="fill:#B9CED4;" d="M119.22,32L96.96,9.49c-0.41-0.41-0.4-1.07,0.01-1.48c0.41-0.41,1.07-0.4,1.48,0.01l21.09,21.12
		C119.54,29.14,119.41,30.83,119.22,32z"/>
</g>
<g>
	<path style="fill:#B9CED4;" d="M64.98,37.84c-0.26,0-0.53-0.1-0.73-0.3c-0.41-0.4-0.42-1.06-0.02-1.48L91.86,8.73
		c0.4-0.41,1.06-0.42,1.48-0.02c0.41,0.4,0.42,1.06,0.02,1.48L65.73,37.52C65.53,37.74,65.26,37.84,64.98,37.84z"/>
</g>
<g>
	<path style="fill:#B9CED4;" d="M65.28,49.1c-0.27,0-0.53-0.1-0.74-0.31c-0.41-0.41-0.41-1.07,0-1.48l39.11-39.05
		c0.41-0.41,1.07-0.41,1.48,0c0.41,0.41,0.41,1.07,0,1.48L66.01,48.79C65.81,48.99,65.54,49.1,65.28,49.1z"/>
</g>
<g>
	<path style="fill:#B9CED4;" d="M69.5,57.52c-0.27,0-0.53-0.1-0.73-0.3c-0.41-0.41-0.42-1.07-0.01-1.48l42.67-43.38
		c0.4-0.41,1.06-0.42,1.48-0.01c0.41,0.41,0.42,1.07,0.01,1.48L70.25,57.21C70.04,57.42,69.77,57.52,69.5,57.52z"/>
</g>
<g>
	<path style="fill:#B9CED4;" d="M75.23,61.22l42.38-42.53c0,0,0.16,0.02,0.47,0.59c0.28,0.51,0.49,1.44,0.49,1.44L77.23,62.17
		c0,0-0.48-0.15-1.02-0.42C75.61,61.45,75.23,61.22,75.23,61.22z"/>
</g>
<g>
	<path style="fill:#B9CED4;" d="M84.96,63.54l34.62-36.04c0.03,0.96-0.17,3.29-0.17,3.29L88.32,63.3
		C88.32,63.3,86.87,63.54,84.96,63.54z"/>
</g>
<path style="fill:#E1F7FE;" d="M35.42,14.36c-0.74-0.22-25.75-0.52-25.75-0.52s-2.3,0.15-3.34,2.45s-0.52,4.23-0.52,4.23
	s-2.37,1.26-2.23,5.34c0.09,2.53,1.93,4.38,1.93,4.38s-1.19,2.08,0.3,5.34c1.16,2.55,4.15,2.82,4.15,2.82s-0.16,2.5,1.26,4.08
	c1.93,2.15,4.6,1.41,4.6,1.41s0.74,2.3,3.56,3.04c2.82,0.74,5.12-1.93,5.12-1.93l15.81-17.14l-3.34-6.82L35.42,14.36z"/>
<path style="fill:#E1E1E1;" d="M36.76,13.48c0,0,2.9-1.29,5.85-1.01c2.87,0.27,4.31,1.74,5.43,4.23c1.25,2.77,1.53,4.92,0.07,7.32
	c-1.72,2.83-5.57,3.48-5.57,3.48s-3.19-0.61-4-1.67c-0.9-1.18-2.99-6.59-3.1-8.14C35.24,14.73,36.76,13.48,36.76,13.48z"/>
<path style="fill:#FFFFFF;" d="M44.75,14.84c-1.32-1.54-4.66-0.22-5.43,2.85s1.26,4.94,2.8,4.66c1.54-0.27,1.21-3.13,1.97-4.11
	C44.86,17.25,45.85,16.12,44.75,14.84z"/>
<g>
	<path style="fill:#AAE2F9;" d="M6.35,21.12c-0.19,0-0.29,0-0.3,0c-0.58-0.01-1.04-0.48-1.03-1.06c0.01-0.58,0.51-1.02,1.06-1.03
		c0.06,0,5.63-0.4,11.58-0.93c7.55-0.67,16.92-2.09,17.01-2.11c0.56-0.09,1.1,0.31,1.19,0.88c0.08,0.57-0.31,1.1-0.88,1.19
		c-0.09,0.01-9.58,1.26-17.14,2.06C11.98,20.75,7.62,21.12,6.35,21.12z"/>
</g>
<g>
	<path style="fill:#AAE2F9;" d="M5.52,30.75c0,0-0.93,0.25-1.24-0.72c-0.3-0.94,0.6-1.27,0.6-1.27c0,0,10.69-3.4,15.08-4.82
		c4.33-1.41,14.7-4.9,14.8-4.93c0.55-0.19,1.14,0.11,1.32,0.66c0.18,0.55-0.11,1.14-0.66,1.32c-0.1,0.04-10.48,3.53-14.82,4.94
		C16.22,27.35,5.52,30.75,5.52,30.75z"/>
</g>
<g>
	<path style="fill:#AAE2F9;" d="M9.85,38.93c-0.35,0-0.7-0.18-0.89-0.5c-0.3-0.49-0.15-1.14,0.35-1.44
		c0.07-0.04,6.69-4.12,13.87-8.15c6.99-3.92,12.6-6.74,12.66-6.77c0.52-0.26,1.14-0.05,1.4,0.46c0.26,0.52,0.05,1.14-0.46,1.4
		c-0.06,0.03-5.63,2.83-12.57,6.72c-7.14,4-13.73,8.06-13.8,8.11C10.23,38.88,10.04,38.93,9.85,38.93z"/>
</g>
<g>
	<path style="fill:#AAE2F9;" d="M16.53,44.96c-0.29,0-0.57-0.12-0.78-0.35c-0.38-0.43-0.35-1.09,0.08-1.48
		c0.08-0.07,6.67-5.77,10.74-9.2c4.11-3.45,10.63-9.04,10.63-9.04l1.36,1.59c0,0-6.53,5.6-10.65,9.06
		c-4.05,3.41-10.62,9.09-10.7,9.16C17.03,44.88,16.78,44.96,16.53,44.96z"/>
</g>
<path style="fill:#FD1B0D;" d="M37.04,13.35l-2.92,0.84c0,0-1.17,2.36,0.92,7.84c1.76,4.61,4.55,6.8,4.55,6.8l2.96-1.31
	c0,0-2.8-2.85-4.33-6.69C36.65,16.88,37.04,13.35,37.04,13.35z"/>
</svg>
